svgs/sharp-regular/mountain-sun.svg

<svg xmlns="http://www.w3.org/2000/svg" viewBox="0 0 640 512"><!--! Font Awesome Pro 6.6.0 by @fontawesome - https://fontawesome.com License - https://fontawesome.com/license (Commercial License) Copyright 2024 Fonticons, Inc. --><path d="M560 0a80 80 0 1 1 0 160A80 80 0 1 1 560 0zM48 454.8l0 9.2 416 0 0-9.2L256 149.3 48 454.8zM227 106.6L256 64l29 42.6L412.5 293.9l38.7-58.4L480 192l28.8 43.5L640 433.7l0 30.3 0 48-48 0-80 0-48 0-7 0L48 512 0 512l0-48 0-24L227 106.6zM512 440l0 24 80 0 0-15.8L480 279l-38.3 57.8L512 440z"/></svg>

<svg xmlns="http://www.w3.org/2000/svg" viewBox="0 0 640 512"><!--! Font Awesome Pro 6.4.0 by @fontawesome - https://fontawesome.com License - https://fontawesome.com/license (Commercial License) Copyright 2023 Fonticons, Inc. --><path d="M560 0a80 80 0 1 1 0 160A80 80 0 1 1 560 0zM48 454.8V464H464v-9.2L256 149.3 48 454.8zM227 106.6L256 64l29 42.6L412.5 293.9l38.7-58.4L480 192l28.8 43.5L640 433.7V464v48H592 512 464h-7H48 0V464 440L227 106.6zM512 440v24h80V448.2L480 279l-38.3 57.8L512 440z"/></svg>
